X: 431
T: Breakin' Up Christmas
B: jims roots
M:C|
L:1/8
Q: 1/4=100
K:A
V:1 
|: "A"efed c2cc | BABA c2cc | efed c2cc | "E"BcBA "A"F2FF |
  "A"efed c2cc | BABA c2cc | e2fe afed | "E"cABc "A"A2AA :|
|: "A"E2FE A2AA | "E"BABA c2cc | "A"E2FD A2AA | "E"BcBA "A"F2FF |
  "A"E2FE A2AA | "E"BABA c2cc | "A"e2fe afed | "E"cABc "A"A4  :|
% abcbook-tune_id 6298c245bcfd3204359f2afb


% abcbook-boost 0
% abcbook-tablature 
% abcbook-transpose 
% abcbook-lastupdated 1654178373497
% abcbook-soundfonts 
% abcbook-repeats 1


